packages/tokens/icons/accessPrivate/size32Px.svg

<svg viewBox="0 0 32 32" fill="none" xmlns="http://www.w3.org/2000/svg" width="1em" height="1em"><path d="M16 15.5C18.2091 15.5 20 13.7091 20 11.5C20 9.29086 18.2091 7.5 16 7.5C13.7909 7.5 12 9.29086 12 11.5C12 13.7091 13.7909 15.5 16 15.5Z" stroke="currentColor" stroke-linecap="round" stroke-linejoin="round"/><path d="M9.49997 24V23.5C9.49997 21.2909 11.2908 19.5 13.5 19.5H18.5C20.7091 19.5 22.5 21.2909 22.5 23.5V24" stroke="currentColor" stroke-linecap="round"/><path d="M6.12207 5.42927C10.3507 6.74246 13.5755 4.29697 15.2849 2.69722C15.6881 2.31984 16.3119 2.31984 16.7152 2.69722C18.4245 4.29697 21.6493 6.74246 25.878 5.42927C26.4745 5.24402 27.1409 5.55854 27.2601 6.17169C28.4321 12.2001 27.7448 21.7132 16.5644 29.6089C16.2291 29.8457 15.7709 29.8457 15.4357 29.6089C4.25508 21.7132 3.56792 12.2001 4.73989 6.1717C4.85909 5.55854 5.52553 5.24402 6.12207 5.42927Z" stroke="currentColor" stroke-linecap="round"/></svg>

<svg xmlns="http://www.w3.org/2000/svg" fill="none" viewBox="0 0 32 32" width="1em" height="1em"><path stroke="currentColor" stroke-linecap="round" stroke-linejoin="round" d="M16 15.5a4 4 0 1 0 0-8 4 4 0 0 0 0 8Z"/><path stroke="currentColor" stroke-linecap="round" d="M9.5 24v-.5a4 4 0 0 1 4-4h5a4 4 0 0 1 4 4v.5"/><path stroke="currentColor" stroke-linecap="round" d="M6.122 5.43c4.229 1.312 7.454-1.133 9.163-2.733a1.045 1.045 0 0 1 1.43 0c1.71 1.6 4.934 4.045 9.163 2.732.596-.185 1.263.13 1.382.743 1.172 6.028.485 15.541-10.696 23.437a.985.985 0 0 1-1.128 0C4.256 21.713 3.568 12.2 4.74 6.172c.12-.613.786-.928 1.382-.743Z"/></svg>
